packages/brickdoc-design-icons/assets/office/text-message.svg

<svg width="24" height="24" viewBox="0 0 24 24" fill="none" xmlns="http://www.w3.org/2000/svg">
<path fill-rule="evenodd" clip-rule="evenodd" d="M2 2.5C1.44772 2.5 1 2.94772 1 3.5V18.5C1 19.0523 1.44772 19.5 2 19.5H9.08579L11.2929 21.7071C11.6834 22.0976 12.3166 22.0976 12.7071 21.7071L14.9142 19.5H22C22.5523 19.5 23 19.0523 23 18.5V3.5C23 2.94772 22.5523 2.5 22 2.5H2ZM3 17.5V4.5H21V17.5H14.5C14.2348 17.5 13.9804 17.6054 13.7929 17.7929L12 19.5858L10.2071 17.7929C10.0196 17.6054 9.76522 17.5 9.5 17.5H3ZM7 7C6.44772 7 6 7.44772 6 8C6 8.55228 6.44772 9 7 9H10C10.5523 9 11 8.55228 11 8C11 7.44772 10.5523 7 10 7H7ZM6 12C6 11.4477 6.44772 11 7 11H8C8.55228 11 9 11.4477 9 12C9 12.5523 8.55228 13 8 13H7C6.44772 13 6 12.5523 6 12ZM15.3944 6.55279C15.281 6.32587 15.0929 6.16094 14.8748 6.07287C14.7526 6.02332 14.6255 5.99969 14.4999 5.99978C14.3744 5.99969 14.2473 6.02332 14.1251 6.07287C13.907 6.16093 13.7189 6.32587 13.6055 6.55279L11.1123 11.5391C11.1074 11.5486 11.1026 11.5581 11.098 11.5678L10.1055 13.5528C9.85848 14.0468 10.0587 14.6474 10.5527 14.8944C11.0467 15.1414 11.6473 14.9412 11.8943 14.4472L12.6179 13H16.382L17.1056 14.4472C17.3526 14.9412 17.9532 15.1414 18.4472 14.8944C18.9412 14.6474 19.1414 14.0468 18.8944 13.5528L17.9042 11.5723C17.8982 11.5596 17.8919 11.5471 17.8854 11.5347L15.3944 6.55279ZM15.382 11L14.4999 9.23597L13.6179 11H15.382Z" fill="3E3E3E"/>
</svg>

<svg  viewBox="0 0 24 24" width="24" height="24" fill="none" xmlns="http://www.w3.org/2000/svg"><path fill-rule="evenodd" clip-rule="evenodd" d="M2 2.5a1 1 0 0 0-1 1v15a1 1 0 0 0 1 1h7.086l2.207 2.207a1 1 0 0 0 1.414 0l2.207-2.207H22a1 1 0 0 0 1-1v-15a1 1 0 0 0-1-1H2Zm1 15v-13h18v13h-6.5a1 1 0 0 0-.707.293L12 19.586l-1.793-1.793A1 1 0 0 0 9.5 17.5H3ZM7 7a1 1 0 0 0 0 2h3a1 1 0 1 0 0-2H7Zm-1 5a1 1 0 0 1 1-1h1a1 1 0 1 1 0 2H7a1 1 0 0 1-1-1Zm9.394-5.447a.996.996 0 0 0-1.269-.48.996.996 0 0 0-.52.48l-2.493 4.986a.958.958 0 0 0-.014.029l-.993 1.985a1 1 0 1 0 1.79.894L12.617 13h3.764l.724 1.447a1 1 0 1 0 1.788-.894l-.99-1.98a1.013 1.013 0 0 0-.019-.038l-2.49-4.982ZM15.382 11 14.5 9.236 13.618 11h1.764Z" fill="3E3E3E"/></svg>
